app/dist/common/images/qingdao-baheal-med.svg

<svg height="18" viewBox="0 0 18 18" width="18" xmlns="http://www.w3.org/2000/svg"><path d="m0 0h18v18h-18z" fill="#f0f3fa"/><path d="m5.02 5c-.38.8-.84 1.3-1.02 1.44.32.19 1.11.56 1.73.56 1.43 0 2.73-.82 3.72-.82 1 0 1.76.45 2.22.7a9.35 9.35 0 0 1 1.33-1.14 3.52 3.52 0 0 0 -1.92-.74c-1.28 0-2.52 1.1-3.58 1.1s-1.7-.5-2.48-1.1z" fill="#8ec31f"/><path d="m11 7.55c-.4.46-.76 1.16-.89 1.45-.5-.47-1.35-1.15-2.2-1.15-.88 0-2.11 1.15-3.2 1.15-.65 0-1.41-.5-1.71-.73.52-.38 1-.94 1.19-1.16.26.24 1 .74 1.9.74 1.15 0 2.07-.85 3.27-.85a3 3 0 0 1 1.65.55z" fill="#0068b7"/><path d="m7.02 9c-.38.8-.84 1.3-1.02 1.44.32.19 1.11.56 1.73.56 1.43 0 2.73-.82 3.72-.82 1 0 1.76.45 2.22.7a9.35 9.35 0 0 1 1.33-1.14 3.52 3.52 0 0 0 -1.92-.74c-1.29 0-2.52 1.1-3.58 1.1s-1.7-.5-2.48-1.1z" fill="#8ec31f"/><path d="m13 11.55c-.4.46-.76 1.16-.89 1.45-.5-.47-1.35-1.15-2.2-1.15-.87 0-2.1 1.15-3.19 1.15-.66 0-1.43-.5-1.72-.73.52-.38 1-.94 1.19-1.16.26.24 1 .74 1.9.74 1.14 0 2.06-.85 3.26-.85a3 3 0 0 1 1.65.55z" fill="#0068b7"/></svg>

<!-- by TradingView --><svg width="18" height="18" viewBox="0 0 18 18" xmlns="http://www.w3.org/2000/svg"><path fill="#F0F3FA" d="M0 0h18v18H0z"/><path d="M5.02 5c-.38.8-.84 1.3-1.02 1.44.32.19 1.11.56 1.73.56 1.43 0 2.73-.82 3.72-.82 1 0 1.76.45 2.22.7A9.35 9.35 0 0 1 13 5.74 3.52 3.52 0 0 0 11.08 5C9.8 5 8.56 6.1 7.5 6.1S5.8 5.6 5.02 5Z" fill="#8EC31F"/><path d="M11 7.55c-.4.46-.76 1.16-.89 1.45-.5-.47-1.35-1.15-2.2-1.15C7.03 7.85 5.8 9 4.71 9 4.06 9 3.3 8.5 3 8.27c.52-.38 1-.94 1.19-1.16.26.24 1 .74 1.9.74C7.24 7.85 8.16 7 9.36 7a3 3 0 0 1 1.65.55Z" fill="#0068B7"/><path d="M7.02 9c-.38.8-.84 1.3-1.02 1.44.32.19 1.11.56 1.73.56 1.43 0 2.73-.82 3.72-.82 1 0 1.76.45 2.22.7A9.35 9.35 0 0 1 15 9.74 3.52 3.52 0 0 0 13.08 9c-1.29 0-2.52 1.1-3.58 1.1S7.8 9.6 7.02 9Z" fill="#8EC31F"/><path d="M13 11.55c-.4.46-.76 1.16-.89 1.45-.5-.47-1.35-1.15-2.2-1.15-.87 0-2.1 1.15-3.19 1.15-.66 0-1.43-.5-1.72-.73.52-.38 1-.94 1.19-1.16.26.24 1 .74 1.9.74 1.14 0 2.06-.85 3.26-.85a3 3 0 0 1 1.65.55Z" fill="#0068B7"/></svg>
